src/travel-places/transport-ground/1F6A8.svg

<svg id="emoji" xmlns="http://www.w3.org/2000/svg" viewBox="0 0 72 72">
  <g id="grid">
    <path d="M68,4V68H4V4H68m4-4H0V72H72Z" fill="#b3b3b3"/>
    <path d="M12.9,11H59.1A1.8987,1.8987,0,0,1,61,12.9h0V59a1.8987,1.8987,0,0,1-1.9,1.9H12.9A1.8371,1.8371,0,0,1,11,59h0V12.9A1.8987,1.8987,0,0,1,12.9,11Z" fill="none" stroke="#00a5ff" stroke-miterlimit="10" stroke-width="0.1"/>
    <path d="M18.3,4H53.8A2.2425,2.2425,0,0,1,56,6.3V65.8a2.3261,2.3261,0,0,1-2.3,2.3H18.3A2.4139,2.4139,0,0,1,16,65.7V6.3A2.263,2.263,0,0,1,18.3,4Z" fill="none" stroke="#00a5ff" stroke-miterlimit="10" stroke-width="0.1"/>
    <path d="M68,18.3V53.8a2.3261,2.3261,0,0,1-2.3,2.3H6.3A2.4139,2.4139,0,0,1,4,53.7V18.3A2.263,2.263,0,0,1,6.3,16H65.8A2.2425,2.2425,0,0,1,68,18.3Z" fill="none" stroke="#00a5ff" stroke-miterlimit="10" stroke-width="0.1"/>
    <circle cx="36" cy="36" r="29" fill="none" stroke="#00a5ff" stroke-miterlimit="10" stroke-width="0.1"/>
  </g>
  <g id="color">
    <path d="M21.4,51V36A14.9585,14.9585,0,0,1,36.3,21h0A15.0887,15.0887,0,0,1,51.2,36V51" fill="#ea5a47"/>
    <path d="M21.4,51h30a4.9514,4.9514,0,0,1,5,5h0a4.9514,4.9514,0,0,1-5,5h-30a4.9514,4.9514,0,0,1-5-5h0A4.9514,4.9514,0,0,1,21.4,51Z" fill="#d0cfce"/>
    <path d="M51.4,36A14.9381,14.9381,0,0,0,36.6,21h0a14.7059,14.7059,0,0,0-4.2.6C41.8,25.4,42.7,44.8,42.8,51h8.7V36Z" fill="#d22f27"/>
  </g>
  <g id="line">
    <line x1="17.8" y1="23.5" x2="13.1" y2="18.8" fill="none" stroke="#000" stroke-linecap="round" stroke-linejoin="round" stroke-width="2"/>
    <line x1="54.1" y1="23.5" x2="58.8" y2="18.8" fill="none" stroke="#000" stroke-linecap="round" stroke-linejoin="round" stroke-width="2"/>
    <line x1="36.4" y1="14" x2="36.4" y2="8" fill="none" stroke="#000" stroke-linecap="round" stroke-linejoin="round" stroke-width="2"/>
    <path d="M21.4,51V36A14.9585,14.9585,0,0,1,36.3,21h0A15.0887,15.0887,0,0,1,51.2,36V51" fill="none" stroke="#000" stroke-linecap="round" stroke-linejoin="round" stroke-width="2"/>
    <path d="M21.1,51H51.6a4.8011,4.8011,0,0,1,4.8,4.8h0a4.8011,4.8011,0,0,1-4.8,4.8H21.1a4.8011,4.8011,0,0,1-4.8-4.8h0A4.9353,4.9353,0,0,1,21.1,51Z" fill="none" stroke="#000" stroke-linecap="round" stroke-linejoin="round" stroke-width="2"/>
  </g>
</svg>

<svg version="1.1" id="emoji" xmlns="http://www.w3.org/2000/svg" x="0" y="0" viewBox="0 0 72 72" style="enable-background:new 0 0 72 72" xml:space="preserve">
  <style type="text/css">
    .st1{fill:none;stroke:#00A5FF;stroke-width:0.1;stroke-miterlimit:10}.st5{fill:none;stroke:#000000;stroke-width:2;stroke-linecap:round;stroke-linejoin:round}
  </style>
  <g id="grid">
    <path d="M68,4v64H4V4H68 M72,0H0v72h72V0z" style="fill:#B3B3B3"/>
    <path class="st1" d="M12.9,11h46.2c1.1,0,1.9,0.9,1.9,1.9v0V59c0,1.1-0.9,1.9-1.9,1.9H12.9C11.9,61,11,60.1,11,59l0,0V12.9 C11,11.8,11.9,11,12.9,11L12.9,11z"/>
    <path class="st1" d="M18.3,4h35.5C55,4,56,5,56,6.3v59.5c0,1.2-1,2.3-2.3,2.3H18.3C17,68,16,67,16,65.7V6.3C16,5,17,4,18.3,4z"/>
    <path class="st1" d="M68,18.3v35.5c0,1.2-1,2.3-2.3,2.3H6.3C5,56,4,55,4,53.7V18.3C4,17,5,16,6.3,16h59.5C67,16,68,17,68,18.3z"/>
    <circle class="st1" cx="36" cy="36" r="29"/>
  </g>
  <g id="color">
    <path d="M21.4,51V36c0-8.2,6.6-15,14.9-15l0,0c8.2,0.1,14.9,6.8,14.9,15v15" style="fill:#E85B4C"/>
    <path d="M21.4,51h30c2.8,0,5,2.2,5,5l0,0c0,2.8-2.2,5-5,5h-30c-2.8,0-5-2.2-5-5l0,0C16.4,53.2,18.6,51,21.4,51z" style="fill:#CFCDCD"/>
    <path d="M51.4,36c0-8.2-6.6-15-14.8-15l0,0c-1.4,0-2.9,0.2-4.2,0.6c9.4,3.8,10.3,23.2,10.4,29.4h8.7V36z" style="fill:#D0312E"/>
  </g>
  <g id="line">
    <line class="st5" x1="17.8" y1="23.5" x2="13.1" y2="18.8"/>
    <line class="st5" x1="54.1" y1="23.5" x2="58.8" y2="18.8"/>
    <line class="st5" x1="36.4" y1="14" x2="36.4" y2="8"/>
    <path class="st5" d="M21.4,51V36c0-8.2,6.6-15,14.9-15l0,0c8.2,0.1,14.9,6.8,14.9,15v15"/>
    <path class="st5" d="M21.1,51h30.5c2.6,0,4.8,2.1,4.8,4.8l0,0c0,2.6-2.1,4.8-4.8,4.8H21.1c-2.6,0-4.8-2.1-4.8-4.8l0,0 C16.4,53.2,18.5,51,21.1,51z"/>
  </g>
</svg>
